X:1
T:O quam suavis est
T:William Byrd (c.1540-1623)
T:O quam suavis est
T:© Choral Public Domain Library 2010
T:© Choral Public Domain Library 2010
T:© Choral Public Domain Library 2010
T:© Choral Public Domain Library 2010
T:© Choral Public Domain Library 2010
T:© Choral Public Domain Library 2010
C:William Byrd (c.1540-1623)
Z:© Choral Public Domain Library 2010
%%score [ 1 2 3 4 ]
L:1/8
M:4/4
K:C
V:1 treble nm="Alto" snm="S."
V:2 treble-8 nm="Tenor" snm="A."
V:3 treble-8 transpose=-12 nm="Tenor" snm="T."
V:4 bass nm="Bass" snm="B."
V:1
 [De]2 |[M:4/2] G16 | G8 ^G8 | A12 _B4 | A8 c6 =B2 | A2 G2 A8 ^G4 | A16 | z16 | B8 c6 B2 | %9
w: |O|quam su-|a- vis|est Do- *|* * * mi-|ne,||su- a- vis|
 A8 A4 B4- | B4 A4 ^G8 | A6 G2 F2 E2 F4- | F4 E4 E8 | z4 ^F6 F2 F4 | G16 | G8 z4 B4- | %16
w: est, su- a-|* vis est|Do- * * * *|* mi- ne,|spi- ri- tus|tu-|us, spi-|
 B2 B2 B4 c8- | c8 c8 | G16 | z8 A8 | z4 A4 B4 d4- | d2 d2 A4 c6 BA | G2 A2 B2 G2 c8 | B16 | %24
w: * ri- tus tu-|* us,|qui,|qui|ut dul- ce-|* di- nem tu- * *||am,|
 z4 A8 c4- | c2 c2 F8 A4- | A2 G2 c6 B2 A2 G2 | ^F4 G8 F4 | G16 | z16 | z8 G8- | G8 A8 | %32
w: in fi-|* li- os de-|* mon- stra- * * *||res,||pa-|* ne|
 B6 A2 B2 G2 c4- | c4 B4 c4 G4 | A16 | G8 G8 | c6 B2 A2 GF E2 G2 | F2 E2 G4 A6 Bc | B8 z8 | %39
w: su- a- vis- * *|* si- mo de|cœ-|lo, de|cœ- * * * * * *||lo,|
 G4 d6 c2 B2 AG | ^F2 G2 A4 B4 A4 | D6 E2 ^F8 | G8 z8 | B6 c2 d4 A4 | B8 G8- | G4 G4 G8 | %46
w: de cœ- * * * *|* * * lo, de|cœ- * *|lo,|præ- * * sti-|to, præ-|* sti- to,|
 z4 B4 A6 B2 | c8 B8 | z4 B4 A6 B2 | c8 B8 | z4 d4 ^c6 d2 | e8 d4 z2 D2 | F3 G F2 D2 G8- | %53
w: e- su- ri-|en- tes,|e- su- ri-|en- tes,|e- su- ri-|en- tes, e-|su- ri- en- * tes|
 G8 z4 G4- | G4 c4 B4 A4 | A8 z4 E4- | E4 c4 B4 E4 | E8 z4 B4 | c2 B2 A8 ^G4 | A6 F2 D4 A4- | %60
w: _ re-|* ples bo- *|nis, re-|* ples bo- *|nis, fa-|sti- di- o- sos|di- vi- tes, di-|
 A2 A2 A4 z4 B4 | c2 B2 A8 ^G4 | A6 _B2 A2 G2 A3 G | F2 E2 D2 F2 E8 | z16 | z8 z4 G4 | %66
w: * vi- tes, fa-|sti- di- o- sos|di- * * * * *|* * * vi- tes,||di-|
 A4 B2 G2 c4 d4 | B8 z4 D4 | E4 ^F2 D2 G4 B4 | A4 A4 B4 c2 A2 | d6 c2 B4 A4 | z4 E4 ^F8 | %72
w: mit- tens in- a- *|nes, di-|mit- tens in- a- *|nes, di- mit- tens in-|a- * * nes,|di- mit-|
 G4 A4 B8 | A6 G2 ^F4 G4 | z4 G4 A8 | B4 G4 c6 BA | G3 A B8 A4- | A2 G2 G8 ^F4 | !fermata!G16 |] %79
w: tens in- a-|nes, in- a- nes,|di- mit-|tens in- a- * *|||nes.|
V:2
 [E,A]2 |[M:4/2] z8 E8- | E8 D8 | E8 F8- | F4 A4 G8 | E6 F2 D8 | z4 E4 F6 E2 | D4 D8 C4 | %8
w: |O|_ quam|su- a-|* vis est|Do- mi- ne,|su- a- vis|est Do- mi-|
 B,4 E8 F4- | F2 E2 D4 C4 D4 | G,4 C4 B,6 B,2 | A,4 E8 D4- | D4 ^C2 B,2 C4 C4 | D8 z4 D4- | %14
w: ne, su- a-|* vis est, Do- *|* * * mi-|ne, Do- *|* * * * mi-|ne, spi-|
 D2 D2 E4 C4 D4 | B,16 | z4 G6 G2 A4 | F4 G4 E8 | D8 D4 E4 | E6 E2 E8 | E4 ^F4 G8 | ^F8 z4 A,4 | %22
w: * ri- tus tu- *|us,|spi- ri- tus|tu- * us,|qui ut dul-|ce- di- nem|tu- * *|am, ut|
 E4 G6 G2 ^F4 | G8 D8 | D4 F8 F4 | C4 D6 C2 F4- | F4 E2 D2 E8 | D16 | z4 B,8 C4 | %29
w: dul- ce- di- nem|tu- am,|in fi- li-|os de- mon- stra-||res,|pa- ne|
 B,6 C2 B,2 E,2 E4- | E4 D4 E8 | z4 E8 C4 | D4 E2 F2 G4 E4 | D8 z8 | D8 F4 E4 | %35
w: su- a- vis- * *|* si- mo,|su- a-|vis- * * * si-|mo,|de cœ- *|
 D2 C2 D4 E2 C2 E2 D2 | E8 z4 G,4 | C6 B,2 A,2 B,C D4 | z4 D4 G6 F2 | E2 DC B,6 A,2 G,4 | %40
w: * * * lo, de cœ- *|lo, de|cœ- * * * * lo,|de cœ- *|* * * * * lo,|
 z4 A,4 D6 C2 | B,2 A,G, ^F,2 G,2 A,8 | E6 F2 G4 E4 | D4 G8 ^F4 | G4 B,6 C2 D4- | %45
w: de cœ- *|* * * * * lo,|præ- * * sti-|to, præ- sti-|to, præ- * *|
 D2 C2 C6 B,A, G,2 A,2 | B,8 z4 D4 | C6 D2 E4 D2 C2 | B,2 C2 D4 z8 | z8 z4 G4 | F6 G2 A4 G2 F2 | %51
w: * * * sti- * * *|to, e-|su- ri- en- * *|* * tes,|e-|su- ri- en- * *|
 E2 ^FG A2 G2 F8 | D6 F2 E4 D4 | B,8 C6 D2 | E2 F2 E4 D4 F4- | F4 C4 E3 D CB, A,2 | %56
w: * * * * * tes|re- ples bo- *|nis, bo- *|* * * nis, re-|* ples bo- * * * *|
 ^G,4 z4 z4 B,4 | C2 B,2 A,8 ^G,4 | A,6 F,2 E,8 | z4 D4 F4 E4 | D6 A,2 B,2 A,4 ^G,2 | %61
w: nis, fa-|sti- di- o- sos|di- vi- tes,|fa- sti- di-|o- sos di- * *|
 A,3 B, C2 D2 E8 | C4 D4 C8 | F,8 G,4 C4 | D4 E2 C2 F4 G4 | D8 E8 | z4 D4 E4 ^F2 D2 | %67
w: * * * vi- tes,|di- * *|vi- tes, di-|mit- tens in- a- *|* nes,|di- mit- tens in-|
 G3 F E2 D4 ^C2 D2 B,2 | A,8 G,4 D4 | E4 ^F2 D2 G3 =F E4 | D8 z4 A,4 | B,4 ^C2 A,2 D6 =C2 | %72
w: a- * * * * nes, in-|a- nes, di-|mit- tens in- a- * *|nes, di-|mit- tens in- a- *|
 B,4 A,2 D4 E3 D D2- | D2 ^CB, C4 D4 B,4 | A,2 G,2 G,8 ^F,4 | G,8 z8 | D8 E8 | D16 | %78
w: * nes, in- a- * *|* * * * nes, in-|a- * * *|nes,|in- a-||
 !fermata!B,16 |] %79
w: nes.|
V:3
 [Cg]2 |[M:4/2] z8 c8- | c8 B8 | ^c8 d8- | d4 f4 e8 | c6 BA B4 B4 | A8 z4 D4 | A6 A2 ^G4 A4- | %8
w: |O|_ quam|su- a-|* vis est|Do- * * * mi-|ne, su-|a- vis est Do-|
 A4 ^G4 A8- | A8 z8 | z8 z4 B4 | c6 B2 A8 | A6 GF E4 A4 | D8 A6 A2 | G4 G2 F2 E4 D4 | D8 G6 G2 | %16
w: * mi- ne,|_|su-|a- vis est|Do- * * * mi-|ne, spi- ri-|tus tu- * * *|us, spi- ri-|
 E8 c6 c2 | A4 G6 AB c4 | B8 B8 | z4 c4 ^c4 c4- | c2 ^c2 d4 B8 | A4 d4 c4 e4- | e2 e2 d4 c8 | %23
w: tus, spi- ri-|tus tu- * * *|us, qui,|ut dul- ce-|* di- nem tu-|am, ut dul- ce-|* di- nem tu-|
 d8 z4 d4 | f6 f2 c8 | A12 c4- | c2 c2 G4 z4 c4- | c4 B4 A8 | G8 z8 | ^G16 | A8 B6 A2 | %31
w: am, in|fi- li- os,|in fi-|* li- os de-|* mon- stra-|res,|pa-|ne su- a-|
 B2 G2 g8 ^f4 | g8 z8 | z8 e8 | f6 e2 d2 cB A2 c2 | B2 A2 B4 z8 | z4 G4 c6 B2 | %37
w: vis- * * si-|mo,|de|cœ- * * * * * *|* * lo,|de cœ- *|
 A2 GF E2 G4 ^FE F4 | z2 G2 B2 A2 B2 c2 d4 | z4 G4 d6 cB | A2 G2 ^F2 A2 G4 A4 | B2 c2 d6 cB A4 | %42
w: * * * * * * * lo,|de cœ- * * * lo,|de cœ- * *|* * * * lo, de|cœ- * * * * lo,|
 c6 d2 e4 c4 | B2 d4 cB A4 d4 | G8 z8 | E6 F2 G4 E4 | D4 G4 ^F6 G2 | A8 G8- | G8 z4 d4 | %49
w: præ- * * sti-|to, præ- * * * sti-|to,|præ- * * sti-|to, e- su- ri-|en- tes,|_ e-|
 c6 d2 e4 d4 | z4 d4 e6 d2 | ^c8 d4 A4- | A4 d4 c4 B4 | G8 A4 G4 | G8 z8 | A8 B4 c4- | %56
w: su- ri- en- tes,|e- su- ri-|en- tes re-|* ples bo- *|nis, bo- *|nis,|re- ples bo-|
 c2 B2 A8 ^G4 | A8 z8 | z4 A4 c4 B4 | A4 A4 z4 E4 | F2 E2 D8 D4 | E6 F2 E8 | F6 G2 A2 B2 c4- | %63
w: |nis,|fa- sti- di-|o- sos, fa-|sti- di- o- sos|di- vi- tes,|di- * * * *|
 c4 B4 c2 c4 A2 | G8 z4 G4 | A4 B2 G2 c4 B4 | c2 d3 c B2 A4 D4 | E2 F2 G3 F E4 D4 | z4 A4 B8 | %69
w: * vi- tes, di- vi-|tes, di-|mit- tens in- a- *|* * * * nes, in-|a- * * * * nes,|di- mit-|
 c2 A2 d4 G4 A4 | ^F3 G A4 G4 z4 | z8 z4 D4 | E4 ^F2 D2 G6 =F2 | E8 D4 D4 | E6 D2 C8 | z4 G4 A8 | %76
w: tens in- a- nes, in-|a- * * nes,|di-|mit- tens in- a- *|* nes, in-|a- * nes,|di- mit-|
 B8 G4 c4- | c4 B4 A8 | !fermata!G16 |] %79
w: tens in- a-||nes.|
V:4
 [^F,,C]2 |[M:4/2] z16 | z16 | z16 | z8 C,8- | C,8 B,,8 | ^C,8 D,8- | D,4 F,4 E,8 | %8
w: ||||O|_ quam|su- a-|* vis est|
 E,6 D,2 C,2 B,,2 A,,4 | D,4 F,6 E,2 D,4 | E,4 A,,4 E,8 | A,,12 D,4 | A,,16 | z8 D,6 D,2 | %14
w: Do- * * mi- ne,|su- a- * *|* vis est|Do- mi-|ne,|spi- ri-|
 B,,4 C,8 B,,2 A,,2 | G,,8 z8 | G,6 G,2 E,4 F,4- | F,4 E,2 D,2 C,8 | G,8 z4 E,4 | %19
w: tus tu- * *|us,|spi- ri- tus tu-|* * * us,|qui, ut|
 ^G,4 A,6 A,2 A,,4 | A,4 D,4 G,8 | D,8 A,4 C4- | C2 C2 B,4 A,8 | G,16 | D,8 F,8- | F,4 F,4 F,8 | %26
w: dul- ce- di- nem|tu- * am,|ut dul- ce-|* di- nem tu-|am,|in fi-|* li- os|
 C,8 A,,8 | D,16 | G,,8 z8 | E,16 | F,8 E,6 F,2 | G,4 E,4 C4 A,4 | G,4 E,8 C,4 | G,6 G,2 C,8 | %34
w: de- mon-|stra-|res,|pa-|ne su- a-|vis- * * si-|mo, su- a-|vis- si- mo,|
 z16 | G,8 C6 B,2 | A,2 G,F, E,2 G,2 F,2 E,D, C,4 | z8 D,8 | G,6 F,2 E,2 D,C, B,,2 D,2 | %39
w: |de cœ- *|* * * * * * * * lo,|de|cœ- * * * * * *|
 C,2 B,,A,, G,,4 z4 G,,4 | D,6 C,2 B,,2 A,,G,, ^F,,2 A,,2 | G,,2 A,,2 B,,2 G,,2 D,8 | %42
w: * * * lo, de|cœ- * * * * * *|* * * * lo,|
 z4 C,6 D,2 E,2 C,2 | G,4 G,4 D,8 | z4 G,,6 A,,2 B,,2 G,,2 | C,4 C,4 G,,8- | G,,8 z8 | z16 | %48
w: præ- * * *|* sti- to,|præ- * * *|* sti- to,|_||
 z4 G,4 ^F,6 G,2 | A,8 G,8 | _B,8 A,6 D,2 | A,,8 D,8- | D,8 z4 G,,4- | G,,4 G,4 F,4 E,4 | %54
w: e- su- ri-|en- tes,|e- su- ri-|en- tes|_ re-|* ples bo- *|
 C,8 z4 D,4- | D,4 F,4 E,4 A,,4 | E,16 | z4 A,,4 C,4 B,,4 | A,,4 A,,4 z4 E,4 | F,2 E,2 D,8 ^C,4 | %60
w: nis, re-|* ples bo- *|nis,|fa- sti- di-|o- sos, fa-|sti- di- o- sos,|
 D,6 C,2 B,,4 B,,4 | A,,6 A,2 C4 B,4 | A,4 D,4 F,6 E,2 | D,4 D,4 C,8 | z4 C,4 D,4 E,2 C,2 | %65
w: di- * * vi-|tes, fa- sti- di-|o- sos di- *|* vi- tes,|di- mit- tens in-|
 F,4 G,4 C,4 E,2 G,2- | G,2 ^F,2 G,4 z8 | z4 G,,4 A,,4 B,,2 G,,2 | C,4 D,4 G,,8 | z16 | %70
w: a- * nes, in- a-|* * nes,|di- mit- tens in-|a- * nes,||
 z4 D,4 E,4 ^F,2 D,2 | G,4 A,4 D,8 | z8 z4 G,,4 | A,,8 B,,4 G,,4 | %74
w: di- mit- tens in-|a- * nes,|di-|mit- tens in-|
"^O how sweet is thy spirit, O Lord, who, to show thy loving-kindness to thy children, dost feed them with that sweetest breadwhich came down from heaven; filling the hungry with good things, and sending the rich and disdainful empty away." C,6 B,,2 A,,8 | %75
w: a- * *|
 G,,4 C,2 G,4 ^F,E, F,4 | G,2 G,,2 G,3 F, E,2 D,2 C,2 B,,A,, | D,16 | !fermata!G,,16 |] %79
w: nes, in- a- * * *|nes, in- a- * * * * * *||nes.|

